X: 7
M: 4/4
L: 1/4
K: C
V: 1 clef=treble
|  "C5"[C4 G4] | "G5"[G4 d4] | "A5"[A4 e4]  | "F5"[F4 c4]  ||  "C"[C4 E4 G4 ] | "G"[G4 B4 D4] | "Am"[A4 C4 E4]  | "F"[F4 A4 C4]  ||
V: 2 clef=bass
|  C4          | G4          | A4           | F4           ||  [C4 G4]        | [G4 D4]       | [A4 E4]         | [F4 C4]        ||
w: I             V             vi             IV               I                V               vi                IV              
